X:207
T:B207-  I am a poor and harmless maid, or In my freedom is all..
Q:1/4=120
L:1/4
M:3/2
K:Dm
ddd|d2e2^c3/2d/2|d3ccc|c2d2B3/2A/2|A3:|\
AAA|A2(=B/2c/2 d)c3/2e/2|=B3ccc|c2A2G3/2F/2|\
F3FFG|A3/2A/2 (=B/2c/2)d^c3/2c/2|d3|]

